img/best.svg

<svg width="20" height="20" viewBox="0 0 20 20" fill="none" xmlns="http://www.w3.org/2000/svg">
<path d="M16.3145 9.80503H16.4812C17.0739 9.80503 17.5553 9.32355 17.5553 8.73089C17.5553 8.13823 17.0738 7.65676 16.4812 7.65676H13.0736C12.8698 7.65676 12.7403 7.49011 12.7587 7.2864C12.9809 5.8048 13.2957 5.30474 13.4439 3.76768C13.5921 2.28609 11.4809 2.02681 11.1846 3.39733C10.6105 5.95306 8.49925 7.65682 7.81399 8.17537C7.66582 8.28647 7.5918 8.43464 7.5918 8.61987V14.7313C7.5918 14.9535 7.7215 15.1388 7.92508 15.2314C8.6658 15.5462 9.53625 16.25 12.0549 16.25H15.9811C16.5738 16.25 17.0552 15.7685 17.0552 15.1759C17.0552 14.5832 16.5737 14.1017 15.9811 14.1017H16.1108C16.6478 14.1017 17.1479 13.7128 17.222 13.1758C17.3147 12.5275 16.7961 11.9534 16.1479 11.9534H16.2776C16.8146 11.9534 17.3147 11.5645 17.3888 11.0275C17.4629 10.3606 16.9629 9.80499 16.3147 9.80499L16.3145 9.80503Z" fill="#1AA657"/>
<path d="M6.2215 8.32324H3.57313C3.27679 8.32324 3.03613 8.56404 3.03613 8.86024V14.5272C3.03613 14.8236 3.27693 15.0642 3.57313 15.0642L6.2215 15.0644C6.51784 15.0644 6.7585 14.8236 6.7585 14.5274V8.86037C6.7585 8.56416 6.51783 8.32337 6.2215 8.32337V8.32324ZM4.90654 13.8791C4.59173 13.8791 4.33247 13.6198 4.33247 13.305C4.33247 12.9902 4.59174 12.731 4.90654 12.731C5.22136 12.731 5.48062 12.9902 5.48062 13.305C5.48062 13.6199 5.22135 13.8791 4.90654 13.8791Z" fill="#1AA657"/>
</svg>

<svg width="20" height="20" viewBox="0 0 20 20" fill="none" xmlns="http://www.w3.org/2000/svg"><path d="M16.314 9.805h.167a1.075 1.075 0 0 0 0-2.148h-3.407c-.204 0-.334-.167-.315-.37.222-1.482.537-1.982.685-3.52.148-1.48-1.963-1.74-2.26-.37-.573 2.556-2.685 4.26-3.37 4.778a.528.528 0 0 0-.222.445v6.111c0 .223.13.408.333.5.74.315 1.611 1.019 4.13 1.019h3.926a1.075 1.075 0 0 0 0-2.148h.13c.537 0 1.037-.39 1.111-.926a1.081 1.081 0 0 0-1.074-1.223h.13c.537 0 1.037-.388 1.11-.925a1.082 1.082 0 0 0-1.073-1.223zM6.221 8.323H3.573a.537.537 0 0 0-.537.537v5.667c0 .297.24.537.537.537h2.648c.297 0 .537-.24.537-.537V8.86a.537.537 0 0 0-.537-.537zM4.907 13.88a.577.577 0 0 1-.575-.574c0-.315.26-.574.575-.574.314 0 .574.26.574.574 0 .315-.26.574-.574.574z" fill="#1AA657"/></svg>
